dist/img/steps/plane-right.svg

<svg id="eGIWztDvNFx1" xmlns="http://www.w3.org/2000/svg" xmlns:xlink="http://www.w3.org/1999/xlink" viewBox="0 0 323 102" shape-rendering="geometricPrecision" text-rendering="geometricPrecision">
<style><![CDATA[
#eGIWztDvNFx2_to {animation: eGIWztDvNFx2_to__to 8000ms linear infinite normal forwards}@keyframes eGIWztDvNFx2_to__to { 0% {offset-distance: 0%} 50% {offset-distance: 0%} 56.25% {offset-distance: 12.560181%} 62.5% {offset-distance: 26.262854%} 68.75% {offset-distance: 46.268204%} 75% {offset-distance: 60.1377%} 81.25% {offset-distance: 73.423025%} 87.5% {offset-distance: 80.902951%} 93.75% {offset-distance: 100%} 100% {offset-distance: 100%}} #eGIWztDvNFx2_tr {animation: eGIWztDvNFx2_tr__tr 8000ms linear infinite normal forwards}@keyframes eGIWztDvNFx2_tr__tr { 0% {transform: rotate(0deg)} 50% {transform: rotate(0deg)} 56.25% {transform: rotate(-50.468647deg)} 62.5% {transform: rotate(-29.486843deg)} 68.75% {transform: rotate(-1.915964deg)} 87.5% {transform: rotate(-12.177738deg)} 100% {transform: rotate(-12.177738deg)}}
]]></style>
<g id="eGIWztDvNFx2_to" style="offset-path:path('M-42.958001,87.231779L13.784549,86.245051C26.221111,67.633928,46.341369,44.876403,45.976957,34.000134C73.254911,17.450069,115.552153,1.652273,129.346446,20.39393Q171.339277,26.775705,185.13357,45.517362C211.890128,51.301854,229.718114,60.916171,243.245158,59.551891Q262.2582,68.468063,275.785244,67.103783Q347.682231,56.319878,361.209275,54.955597');offset-rotate:0deg"><g id="eGIWztDvNFx2_tr" transform="rotate(0)"><g transform="translate(-155.325996,-27.473106)"><path d="M148.217,47.6011l51.066-4.4964-39.65-18.5198.698,9.1807-11.149,5.7931-.965,8.0424Z" fill="#685ed6"/><path d="M199.284,43.104L151.798,28.2223l-40.43,8.1631l87.916,6.7186Z" fill="#18e1f7"/><path d="M159.634,24.5846l39.65,18.5198L162.833,7.34511L159.634,24.5846Z" fill="#18e1f7"/></g></g></g><path d="M136.5,17C96.5,0.000011,76.4,10.5,58,28.5C35,51,56,104.5,1,101" fill="none" stroke="#685ed6" stroke-linecap="round" stroke-linejoin="round" stroke-dasharray="5,7"/><path d="M216,52c12.833,8.8333,53.5,24.5,106.5,9" fill="none" stroke="#685ed6" stroke-linecap="round" stroke-linejoin="round" stroke-dasharray="5,7"/></svg>

<svg width="323" height="102" viewBox="0 0 323 102" fill="none" xmlns="http://www.w3.org/2000/svg">
<path d="M148.217 47.6011L199.283 43.1047L159.633 24.5849L160.331 33.7656L149.182 39.5587L148.217 47.6011Z" fill="#685ED6"/>
<path d="M199.284 43.104L151.798 28.2223L111.368 36.3854L199.284 43.104Z" fill="#18E1F7"/>
<path d="M159.634 24.5846L199.284 43.1044L162.833 7.34511L159.634 24.5846Z" fill="#18E1F7"/>
<path d="M136.5 17C96.5 1.14441e-05 76.4 10.5 58 28.5C35 51 56 104.5 1 101" stroke="#685ED6" stroke-linecap="round" stroke-linejoin="round" stroke-dasharray="5 7"/>
<path d="M216 52C228.833 60.8333 269.5 76.5 322.5 61" stroke="#685ED6" stroke-linecap="round" stroke-linejoin="round" stroke-dasharray="5 7"/>
</svg>
